!!!ONR: No. 2
!! Transcription 2 (LF 78.3)
!!!OTL: Due/rmase, Nin~a, que tengo que hacer
!!!SINGER: Rosa Luisa Marti/nez
!!!PLACE: South America, Colombia, Evitar
!!!DATE 1964 November 1
!! From George List, "Music and Poetry in a Colombian Village:
!! A Tri-Cultural Heritage"
!! Bloomington, Indiana: Indiana University Press, 1983
**kern
*clefG2
*k[f#]
*M2/2
*MM152
*>verse 1
=1-
{4g
8b
8dd
4cc
8a
8cc
=
*M6/4
4b
4g
8ee
2d}
4r
=
{4g
4b
4dd
4ee
4cc
4cc
=
4b
4g
8e
8e
4d}
4r
{4c
=
4c
4c
4c
4g
4g
4d
=
4d
8f#
8f#
4a
4g}
4r
{4c
=
4c
4c
4c
4g
4g
4d
=
4d
8c
8c
4A
4G}
4r
4r
=
*>verse 2
{4cc
4cc
4cc
4cc
4a
4cc
=
4b
4g
4e
4d}
4r
4r
=
{4g
4b
4dd
4ee
2cc
=
4b
4g
4e
4d}
4r
{4c
=
4c
4c
4c
4g
4g
4e
=
4d
4f#
4aa
4g}
4r
{4c
=
4c
4c
4c
4g
4g
4d
=
4d
4c
4A
4G}
4r
4r
=
*>verse 3
*M2/2
{4g
8b
8cc
4cc
8a
8cc
=
*M6/4
4b
4g
4e
4d
4d}
4r
=
*M2/2
{4g
8b
8dd
4ee
8c
8r
=
*M6/8
4b
4g
4e
4d
4d}
4r
{4d
=
4c
4c
4c
4g
4g
4g
=
4d
4f#
4a
4g}
4r
4r
=
{4c
4c
4c
4g
4g
4g
=
4d
4c
4c
4B}
4r
4r
=
*>verse 4
{4cc
4cc
4cc
4cc
4a
4cc
=
4b
4g
4e
2d}
4r
=
{4g
4b
4dd
4ee
4cc
4cc
=
4b
4g
4e
4d}
4r
{4d
=
4c
4c
4c
4g
4g
4g
=
4d
4f#
4a
4g}
4r
{4c
=
4c
4c
4c
4g
4g
4g
=
4d
4c
4c
4B}
4r
4r
=
*>verse 5
{4g
4b
4cc
4cc
4a
4cc
=
4b
4g
4e
4d
4d}
4r
=
{4g
4b
4dd
4ee
4cc
4cc
=
4b
4g
4e
4d
4d}
{4d
=
4c
4c
4c
4g
4r
4d
=
4d
4f#
4a
4g
4g}
{4g
=
4c
4c
4c
4g
4r
4d
=
4c
4c
4c
4B}
4r
4r
=
*>verse 6
{4g
4b
4cc
4cc
4a
4cc
=
4b
4g
4e
4d
4d}
4r
=
{4g
4b
4cc
4ee
4cc
4cc
=
4b
4g
4e
4d
4d
4d
=
4c
4c
4c
4g}
4r
{4d
=
4d
4f#
4a
8g
8g}
4r
{4c
=
4c
4c
4c
4g
4r
4g
=
4d
4c
4c
4c}
4r
4r
=
*>verse 7
{8cc
8cc
4cc
4cc
4cc
4a
4cc
=
4b
4g
4e
4d
4d}
4r
=
{8g
8g
4b
4dd
4ee
4cc
4cc
=
4b
4g
4e
4d
4d
4d
=
4c}
!! skwiggly line
==
*-
